X:1
T:Thy Word
%%score { ( 1 3 4 ) | ( 2 5 ) }
L:1/8
M:4/4
K:Eb
V:1 treble nm="Piano"
V:3 treble 
V:4 treble 
V:2 bass 
V:5 bass 
V:1
 [B,E]4 B,2 B,[B,E] | [DF][DF]/[DF]/- [DF][EG] [EG]2 [EG][B,F] | [CE]3 [CE] [DF]3 [B,E] | %3
w: ቃል- ካ ን- እግ-|ረይ መብ- ራህ- * ቲ 'ዩ ን- መ-|ገ- ደይ ብር- ሃን|
 [B,E]6 z2 | [B,E]4 B,2 B,[B,E] | [DF][DF]/[DF]/- [DF][EG] [EG]2 [EG][DF] | %6
w: 'ዩ።|ቃል- ካ ን- እግ-|ረይ መብ- ራህ- * ቲ 'ዩ ን- መ-|
 [CE]3 [CE] [DF]3 [B,E] | [B,E]6 z2 |] [DF][DF]/[DF]/- [DF][CA] [CA]4 | %9
w: ገ- ደይ ብር- ሃን|'ዩ።|ብ- ፍር- ሂ * መ- ገ|
 [CE][CE]/[CE]/- [CE][B,G] [B,G]4 | [A,C]3 [CE] [B,D]2 CB, | (C3- C/B,/) B,3 B, | %12
w: ምስ ዝ- ጠፍ- * ኣ- ኒ|ስ- ኻ ኣብ ጎድ- ነይ|ኢ- * * ኻ ኣይ-|
 [DF][DF]/[DF]/- [DF][FA] [FA]3 (G/F/) | [CE][CE]/[CE]/- [CE][B,G] [B,G]4 | C3 E [DF]3 [B,E] | %15
w: ፈ- ር- ህን * ድ- ማ ም- *|ሳይ ምስ ት- * ኸ- ውን|ሳይ ኩን ክ- ሳዕ|
 [DF][=EG]/[EG]/- (([EG]6 | [DF]6)) z2!D.C.! || %17
w: መወ- ዳእ- ታ.................... *||
V:2
 [E,G,]4 [E,G,]2 [E,G,][G,,E,] | [B,,B,][B,,B,]/[B,,B,]/- [B,,B,][B,,B,] [E,B,]2 [E,B,][E,G,] | %2
 [A,,A,]3 [A,,A,] [B,,A,]3 [B,,A,] | [E,G,]6 z2 | [E,G,]4 [E,G,]2 [E,G,][G,,E,] | %5
 [B,,B,][B,,B,]/[B,,B,]/- [B,,B,][B,,B,] [E,B,]2 [E,B,][E,G,] | [A,,A,]3 [A,,A,] [B,,A,]3 [B,,A,] | %7
 [E,G,]6 z2 |] [D,B,][D,B,]/[D,B,]/- [D,B,]F, F,4 | [C,G,][C,G,]/[C,G,]/- [C,G,][G,,D,] [G,,D,]4 | %10
 [A,,E,]3 [A,,A,] [B,,F,]2 [B,,A,][B,,G,] | ([E,A,]3- [E,A,]/[E,G,]/) [E,G,]3 [E,G,] | %12
 [D,B,][D,B,]/[D,B,]/- [D,B,][F,C] [F,C]3 [F,A,] | [C,G,][C,G,]/[C,G,]/- [C,G,][G,,G,] [G,,G,]4 | %14
 [A,,E,]3 [A,,C] [B,,B,]3 [B,,A,] | [C,C][C,G,]/[C,G,]/- (([C,G,]6 | [B,,B,]6)) z2 || %17
V:3
 x8 | x8 | x8 | x8 | x8 | x8 | x8 | x8 |] x4 [CA]3 (G/F/) | x4 [B,G]3 B, | x8 | x8 | x7 C | %13
w: ||||||||* ደይ *|* ን||||
 x4 [B,G]3 B, | x8 | x8 | x8 || %17
w: * ም||||
V:4
 x8 | x8 | x8 | x8 | x8 | x8 | x8 | x8 |] x7 C | x8 | x8 | x8 | x8 | x8 | x8 | x8 | x8 || %17
V:5
 x8 | x8 | x8 | x8 | x8 | x8 | x8 | x8 |] x4 F,3 [F,A,] | x4 [G,,D,]3 [G,,G,] | x8 | x8 | x8 | %13
 x4 [G,,G,]3 [G,,G,] | x8 | x8 | x8 || %17

